packages/react-icons/icons/snowflake.svg

<svg width="24" height="25" viewBox="0 0 24 25" xmlns="http://www.w3.org/2000/svg"><path fill-rule="evenodd" clip-rule="evenodd" d="M12.9001 3.40098C12.9001 2.90392 12.4971 2.50098 12.0001 2.50098C11.503 2.50098 11.1001 2.90392 11.1001 3.40098V7.09991L8.78818 4.78802C8.43671 4.43655 7.86686 4.43655 7.51538 4.78802C7.16391 5.13949 7.16391 5.70934 7.51538 6.06081L11.1001 9.6455V11.6001H9.14723L5.56167 8.01451C5.2102 7.66304 4.64035 7.66304 4.28888 8.01451C3.93741 8.36598 3.93741 8.93583 4.28888 9.2873L6.60165 11.6001H2.90098C2.40392 11.6001 2.00098 12.003 2.00098 12.5001C2.00098 12.9971 2.40392 13.4001 2.90098 13.4001H6.60089L4.289 15.712C3.93753 16.0634 3.93753 16.6333 4.289 16.9848C4.64047 17.3362 5.21032 17.3362 5.56179 16.9848L9.14647 13.4001H11.1001V15.3537L7.51538 18.9383C7.16391 19.2898 7.16391 19.8597 7.51538 20.2111C7.86686 20.5626 8.43671 20.5626 8.78818 20.2111L11.1001 17.8992V21.5993C11.1001 22.0964 11.503 22.4993 12.0001 22.4993C12.4971 22.4993 12.9001 22.0964 12.9001 21.5993V17.8985L15.2128 20.2113C15.5643 20.5627 16.1342 20.5627 16.4856 20.2113C16.8371 19.8598 16.8371 19.2899 16.4856 18.9385L12.9001 15.3529V13.4001H14.8542L18.4388 16.9848C18.7903 17.3362 19.3602 17.3362 19.7116 16.9848C20.0631 16.6333 20.0631 16.0634 19.7116 15.712L17.3997 13.4001H21.0993C21.5964 13.4001 21.9993 12.9971 21.9993 12.5001C21.9993 12.003 21.5964 11.6001 21.0993 11.6001H17.399L19.7117 9.2873C20.0632 8.93583 20.0632 8.36598 19.7117 8.01451C19.3603 7.66304 18.7904 7.66304 18.439 8.01451L14.8534 11.6001H12.9001V9.64625L16.4856 6.0607C16.8371 5.70922 16.8371 5.13938 16.4856 4.7879C16.1342 4.43643 15.5643 4.43643 15.2128 4.7879L12.9001 7.10067V3.40098Z"/></svg>

<svg xmlns="http://www.w3.org/2000/svg" width="24" height="25"><path fill-rule="evenodd" d="M12.9 3.401a.9.9 0 0 0-1.8 0V7.1L8.788 4.788a.9.9 0 0 0-1.273 1.273L11.1 9.646V11.6H9.147L5.562 8.015a.9.9 0 0 0-1.273 1.272L6.602 11.6H2.9a.9.9 0 1 0 0 1.8h3.7l-2.312 2.312a.9.9 0 0 0 1.273 1.273L9.146 13.4H11.1v1.954l-3.585 3.584a.9.9 0 0 0 1.273 1.273L11.1 17.9v3.7a.9.9 0 1 0 1.8 0v-3.7l2.313 2.312a.9.9 0 0 0 1.273-1.272L12.9 15.353V13.4h1.954l3.585 3.585a.9.9 0 0 0 1.273-1.273L17.4 13.4h3.7a.9.9 0 0 0 0-1.8h-3.701l2.313-2.313a.9.9 0 1 0-1.273-1.272L14.853 11.6H12.9V9.646l3.586-3.585a.9.9 0 1 0-1.273-1.273L12.9 7.1V3.4Z" clip-rule="evenodd"/></svg>
